X:249
T:Miss Marie Fielding 
C:Joe Buchanan's Scottish Tome - Page 302.0
I:302 0
C:Fergie MacDonald
R:Jig
Z:Carl Allison
L:1/8
M:6/8
K:D
c/d/ | "A" e2 e e>ac | "D7" d>cd "G" g2 f | "A" e2 A A>Bc | "G" B>AG G>cd |
"A" e2 e e>ac | "D7" d>cd "G" g2 f | "A" e2 A "G" B>AG | "A" A3 A2 :|
c/d/ | "A" e2 A A>Bc | "D7" d>cd "G" g2 f | "A" e2 A A>Bc | "G" B>AG G>cd |
"A" e2 A A>Bc | "D7" d>cd "G" g2 f | "A" e2 A "G" B>AG | "A" A3 A>cd |
"A" e2 A A>Bc | "D7" d>cd "G" g2 f | "A" e2 A A>Bc | "G" B>AG G>gf |
"A" e2 e e<ac | "D7" d>cd "G" g2 f | "A" e2 A "G" B>AG | "A" A3 A2 |]
c/d/ | "A" e2 e e>ce | "D7" d>ef "G" g>Gd | "A" e2 A "G" A>Bc | "G" B>AG G>cd |
"A" e2 e ece | "D7" d>ef "G" g>Gd | "A" e2 A "G" B>AG | "A" A3 A2 :|
c/d/ | "A" e>AA e>AA | "D7" d>cd "G" d>gf | "A" e>AA e>AA | "G" B>AG G>cd |
"A" e>AA e>AA | "D7" d>cd "G" d<gf | "A" e2 A "G" B>AG | "A" A3 A>cd |
"A" e>AA e>AA | "D7" d>cd "G" d>gf | "A" e>AA e>AA | "G" B>AG G>gf |
"A" e>ge A>ec | "D7" d>ef "G" g>Bd | "A" e2 A "G" B>AG | "A" A3 A2 |]

